Sources/FrostedUI/Resources/Icons.xcassets/home32.imageset/home-32.svg

<svg width="32" height="32" viewBox="0 0 32 32" fill="none" xmlns="http://www.w3.org/2000/svg" data-fui-icon="true">
  <path
    d="M16 1C16.8968 1 17.7677 1.3026 18.4707 1.85938L29.1992 10.3574C30.0206 11.0079 30.4999 11.9981 30.5 13.0459V27.9102C30.4999 29.0643 29.5643 29.9999 28.4102 30H23.0898C21.9357 29.9999 21.0001 29.0643 21 27.9102V23C21 20.2386 18.7614 18 16 18C13.2386 18 11 20.2386 11 23V27.9102C10.9999 29.0643 10.0643 29.9999 8.91016 30H3.58984C2.43569 29.9999 1.50007 29.0643 1.5 27.9102V13.0459C1.50009 11.9981 1.97941 11.0079 2.80078 10.3574L13.5293 1.85938C14.2323 1.3026 15.1032 1 16 1ZM16 2.5C15.4414 2.5 14.8989 2.68837 14.4609 3.03516L3.73145 11.5332C3.26941 11.8992 3.00009 12.4565 3 13.0459V27.9102C3.00007 28.2359 3.26411 28.4999 3.58984 28.5H8.91016C9.23589 28.4999 9.49993 28.2359 9.5 27.9102V23C9.50001 19.4102 12.4102 16.5 16 16.5C19.5898 16.5 22.5 19.4102 22.5 23V27.9102C22.5001 28.2359 22.7641 28.4999 23.0898 28.5H28.4102C28.7359 28.4999 28.9999 28.2359 29 27.9102V13.0459C28.9999 12.4565 28.7306 11.8992 28.2686 11.5332L17.5391 3.03516C17.1011 2.68837 16.5586 2.5 16 2.5Z"
    fill="currentColor"
  />
</svg>

<svg xmlns="http://www.w3.org/2000/svg" width="32" height="32" fill="none" data-fui-icon="true" viewBox="0 0 32 32"><path fill="currentColor" d="M16 1a3.98 3.98 0 0 1 2.47.86l10.73 8.497a3.43 3.43 0 0 1 1.3 2.689V27.91A2.09 2.09 0 0 1 28.41 30h-5.32A2.09 2.09 0 0 1 21 27.91V23a5 5 0 0 0-10 0v4.91A2.09 2.09 0 0 1 8.91 30H3.59a2.09 2.09 0 0 1-2.09-2.09V13.046a3.43 3.43 0 0 1 1.3-2.689L13.53 1.86A3.98 3.98 0 0 1 16 1m0 1.5a2.48 2.48 0 0 0-1.54.535L3.732 11.533A1.93 1.93 0 0 0 3 13.046V27.91c0 .326.264.59.59.59h5.32a.59.59 0 0 0 .59-.59V23a6.5 6.5 0 0 1 13 0v4.91c0 .326.264.59.59.59h5.32a.59.59 0 0 0 .59-.59V13.046c0-.59-.27-1.147-.731-1.513l-10.73-8.498A2.48 2.48 0 0 0 16 2.5"/></svg>
